; G-Code generated by Simplify3D(R) Version 
; Oct 3, 2020 at 9:05:53 AM
; Settings Summary
;   processName,Process1
;   applyToModels,zcrystal_normalium
;   profileName,Creality CR-10 (modified)
;   profileVersion,2018-01-19 08:00:00
;   baseProfile,
;   printMaterial,PLA
;   printQuality,Medium
;   printExtruders,
;   extruderName,Primary Extruder
;   extruderToolheadNumber,0
;   extruderDiameter,0.4
;   extruderAutoWidth,0
;   extruderWidth,0.4
;   extrusionMultiplier,0.9
;   extruderUseRetract,1
;   extruderRetractionDistance,5
;   extruderExtraRestartDistance,0
;   extruderRetractionZLift,0
;   extruderRetractionSpeed,1800
;   extruderUseCoasting,0
;   extruderCoastingDistance,0.2
;   extruderUseWipe,0
;   extruderWipeDistance,5
;   primaryExtruder,0
;   layerHeight,0.2
;   topSolidLayers,3
;   bottomSolidLayers,3
;   perimeterOutlines,2
;   printPerimetersInsideOut,1
;   startPointOption,2
;   startPointOriginX,0
;   startPointOriginY,0
;   sequentialIslands,0
;   spiralVaseMode,0
;   firstLayerHeightPercentage,120
;   firstLayerWidthPercentage,150
;   firstLayerUnderspeed,0.5
;   useRaft,0
;   raftExtruder,0
;   raftTopLayers,3
;   raftBaseLayers,2
;   raftOffset,3
;   raftSeparationDistance,0.14
;   raftTopInfill,100
;   aboveRaftSpeedMultiplier,0.3
;   useSkirt,1
;   skirtExtruder,0
;   skirtLayers,1
;   skirtOutlines,4
;   skirtOffset,8
;   usePrimePillar,0
;   primePillarExtruder,999
;   primePillarWidth,12
;   primePillarLocation,7
;   primePillarSpeedMultiplier,1
;   useOozeShield,0
;   oozeShieldExtruder,999
;   oozeShieldOffset,2
;   oozeShieldOutlines,1
;   oozeShieldSidewallShape,1
;   oozeShieldSidewallAngle,30
;   oozeShieldSpeedMultiplier,1
;   infillExtruder,0
;   internalInfillPattern,Rectilinear
;   externalInfillPattern,Rectilinear
;   infillPercentage,20
;   outlineOverlapPercentage,15
;   infillExtrusionWidthPercentage,100
;   minInfillLength,5
;   infillLayerInterval,1
;   internalInfillAngles,45,-45
;   overlapInternalInfillAngles,0
;   externalInfillAngles,45,-45
;   generateSupport,0
;   supportExtruder,0
;   supportInfillPercentage,30
;   supportExtraInflation,0
;   supportBaseLayers,0
;   denseSupportExtruder,0
;   denseSupportLayers,0
;   denseSupportInfillPercentage,70
;   supportLayerInterval,1
;   supportHorizontalPartOffset,0.3
;   supportUpperSeparationLayers,1
;   supportLowerSeparationLayers,1
;   supportType,0
;   supportGridSpacing,4
;   maxOverhangAngle,45
;   supportAngles,0
;   temperatureName,Primary Extruder,Heated Bed
;   temperatureNumber,0,0
;   temperatureSetpointCount,1,1
;   temperatureSetpointLayers,1,1
;   temperatureSetpointTemperatures,210,60
;   temperatureStabilizeAtStartup,1,1
;   temperatureHeatedBed,0,1
;   fanLayers,1,2
;   fanSpeeds,0,100
;   blipFanToFullPower,0
;   adjustSpeedForCooling,1
;   minSpeedLayerTime,15
;   minCoolingSpeedSlowdown,20
;   increaseFanForCooling,0
;   minFanLayerTime,45
;   maxCoolingFanSpeed,100
;   increaseFanForBridging,0
;   bridgingFanSpeed,100
;   use5D,1
;   relativeEdistances,0
;   allowEaxisZeroing,1
;   independentExtruderAxes,0
;   includeM10123,0
;   stickySupport,1
;   applyToolheadOffsets,0
;   gcodeXoffset,0
;   gcodeYoffset,0
;   gcodeZoffset,0
;   overrideMachineDefinition,1
;   machineTypeOverride,0
;   strokeXoverride,300
;   strokeYoverride,300
;   strokeZoverride,400
;   originOffsetXoverride,0
;   originOffsetYoverride,0
;   originOffsetZoverride,0
;   homeXdirOverride,-1
;   homeYdirOverride,-1
;   homeZdirOverride,-1
;   flipXoverride,1
;   flipYoverride,-1
;   flipZoverride,1
;   toolheadOffsets,0,0|0,0|0,0|0,0|0,0|0,0
;   overrideFirmwareConfiguration,1
;   firmwareTypeOverride,RepRap (Marlin/Repetier/Sprinter)
;   GPXconfigOverride,r2
;   baudRateOverride,115200
;   overridePrinterModels,1
;   printerModelsOverride
;   startingGcode,G28 ; home all axes,G1 Z5 F3000 ; lift,G1 X5 Y10 F1500 ; move to prime,G1 Z0.2 F3000 ; get ready to prime,G92 E0 ; reset extrusion distance,G1 Y80 E10 F600 ; prime nozzle,G1 Y100 F5000 ; quick wipe
;   layerChangeGcode,
;   retractionGcode,
;   toolChangeGcode,
;   endingGcode,G28 X0 ; home x axis,M106 S0 ; turn off cooling fan,M104 S0 ; turn off extruder,M140 S0 ; turn off bed,M84 ; disable motors
;   exportFileFormat,gcode
;   celebration,0
;   celebrationSong,Random Song
;   postProcessing,
;   defaultSpeed,2400
;   outlineUnderspeed,0.5
;   solidInfillUnderspeed,0.8
;   supportUnderspeed,0.8
;   rapidXYspeed,4800
;   rapidZspeed,1000
;   minBridgingArea,50
;   bridgingExtraInflation,0
;   bridgingExtrusionMultiplier,1
;   bridgingSpeedMultiplier,1
;   useFixedBridgingAngle,0
;   fixedBridgingAngle,0
;   applyBridgingToPerimeters,0
;   filamentDiameters,1.75|1.75|1.75|1.75|1.75|1.75
;   filamentPricesPerKg,46|46|46|46|46|46
;   filamentDensities,1.25|1.25|1.25|1.25|1.25|1.25
;   useMinPrintHeight,0
;   minPrintHeight,0
;   useMaxPrintHeight,0
;   maxPrintHeight,0
;   useDiaphragm,0
;   diaphragmLayerInterval,20
;   robustSlicing,1
;   mergeAllIntoSolid,0
;   onlyRetractWhenCrossingOutline,1
;   retractBetweenLayers,1
;   useRetractionMinTravel,0
;   retractionMinTravel,3
;   retractWhileWiping,0
;   onlyWipeOutlines,1
;   avoidCrossingOutline,0
;   maxMovementDetourFactor,3
;   toolChangeRetractionDistance,12
;   toolChangeExtraRestartDistance,-0.5
;   toolChangeRetractionSpeed,600
;   externalThinWallType,0
;   internalThinWallType,2
;   thinWallAllowedOverlapPercentage,10
;   singleExtrusionMinLength,1
;   singleExtrusionMinPrintingWidthPercentage,50
;   singleExtrusionMaxPrintingWidthPercentage,200
;   singleExtrusionEndpointExtension,0.2
;   horizontalSizeCompensation,0
G90
M82
M106 S0
M140 S60
M190 S60
M104 S210 T0
M109 S210 T0
G28 ; home all axes
G1 Z5 F3000 ; lift
G1 X5 Y10 F1500 ; move to prime
G1 Z0.2 F3000 ; get ready to prime
G92 E0 ; reset extrusion distance
G1 Y80 E10 F600 ; prime nozzle
G1 Y100 F5000 ; quick wipe
; process Process1
; layer 1, Z = 0.240
T0
G92 E0.0000
G1 E-5.0000 F1800
; feature skirt
; tool H0.240 W0.600
G1 Z0.240 F1000
G1 X119.900 Y143.001 F4800
G1 E0.0000 F1800
G92 E0.0000
G1 X148.169 Y132.400 E1.6267 F1200
G1 X151.831 Y132.400 E1.8241
G1 X180.100 Y143.001 E3.4508
G1 X180.100 Y156.999 E4.2051
G1 X151.831 Y167.600 E5.8318
G1 X148.169 Y167.600 E6.0292
G1 X119.900 Y156.999 E7.6559
G1 X119.900 Y143.001 E8.4102
G92 E0.0000
G1 E-5.0000 F1800
G1 X120.500 Y143.417 F4800
G1 E0.0000 F1800
G92 E0.0000
G1 X148.277 Y133.000 E1.5985 F1200
G1 X151.723 Y133.000 E1.7841
G1 X179.500 Y143.417 E3.3826
G1 X179.500 Y156.583 E4.0920
G1 X151.723 Y167.000 E5.6905
G1 X148.277 Y167.000 E5.8761
G1 X120.500 Y156.583 E7.4746
G1 X120.500 Y143.417 E8.1840
G92 E0.0000
G1 E-5.0000 F1800
G1 X121.100 Y143.832 F4800
G1 E0.0000 F1800
G92 E0.0000
G1 X148.386 Y133.600 E1.5702 F1200
G1 X151.614 Y133.600 E1.7441
G1 X178.900 Y143.832 E3.3143
G1 X178.900 Y156.168 E3.9789
G1 X151.614 Y166.400 E5.5491
G1 X148.386 Y166.400 E5.7231
G1 X121.100 Y156.168 E7.2932
G1 X121.100 Y143.832 E7.9579
G92 E0.0000
G1 E-5.0000 F1800
G1 X121.700 Y144.248 F4800
G1 E0.0000 F1800
G92 E0.0000
G1 X148.495 Y134.200 E1.5419 F1200
G1 X151.505 Y134.200 E1.7041
G1 X178.300 Y144.248 E3.2460
G1 X178.300 Y155.752 E3.8659
G1 X151.505 Y165.800 E5.4078
G1 X148.495 Y165.800 E5.5700
G1 X121.700 Y155.752 E7.1119
G1 X121.700 Y144.248 E7.7318
G92 E0.0000
G1 E-5.0000 F1800
; feature inner perimeter
G1 X132.563 Y150.000 F4800
G1 E0.0000 F1800
G92 E0.0000
G1 X150.000 Y143.461 E1.0034 F900
G1 X167.437 Y150.000 E2.0068
G1 X150.000 Y156.539 E3.0102
G1 X132.563 Y150.000 E4.0136
; feature outer perimeter
G1 X130.854 Y150.000 F4800
G92 E0.0000
G1 X150.000 Y142.820 E1.1017 F600
G1 X169.146 Y150.000 E2.2035
G1 X150.000 Y157.180 E3.3052
G1 X130.854 Y150.000 E4.4070
G1 X145.700 Y149.913 F4800
G92 E0.0000
G1 X145.747 Y150.642 E0.0394 F600
G1 X145.917 Y151.353 E0.0787
G1 X146.205 Y152.024 E0.1181
G1 X146.790 Y152.927 E0.1761
G1 X147.578 Y152.139 E0.2361
G1 X147.154 Y151.460 E0.2792
G1 X146.950 Y150.964 E0.3081
G1 X146.832 Y150.441 E0.3370
G1 X146.802 Y149.905 E0.3659
G1 X146.863 Y149.372 E0.3948
G1 X147.012 Y148.856 E0.4238
G1 X147.246 Y148.373 E0.4527
G1 X147.556 Y147.936 E0.4816
G1 X147.936 Y147.556 E0.5105
G1 X148.373 Y147.246 E0.5394
G1 X148.856 Y147.012 E0.5683
G1 X149.372 Y146.863 E0.5972
G1 X149.905 Y146.802 E0.6261
G1 X150.441 Y146.832 E0.6550
G1 X150.964 Y146.950 E0.6840
G1 X151.460 Y147.154 E0.7129
G1 X152.139 Y147.578 E0.7560
G1 X152.927 Y146.790 E0.8160
G1 X152.024 Y146.205 E0.8740
G1 X151.353 Y145.917 E0.9133
G1 X150.642 Y145.747 E0.9527
G1 X149.913 Y145.700 E0.9921
G1 X149.187 Y145.776 E1.0314
G1 X148.484 Y145.975 E1.0708
G1 X147.824 Y146.290 E1.1102
G1 X147.228 Y146.711 E1.1495
G1 X146.711 Y147.228 E1.1889
G1 X146.290 Y147.824 E1.2282
G1 X145.975 Y148.484 E1.2676
G1 X145.776 Y149.187 E1.3070
G1 X145.700 Y149.913 E1.3463
; feature inner perimeter
G1 X145.098 Y149.901 F4800
G92 E0.0000
G1 X145.152 Y150.732 E0.0449 F900
G1 X145.346 Y151.542 E0.0897
G1 X145.674 Y152.308 E0.1346
G1 X146.245 Y153.189 E0.1912
G1 X146.124 Y153.310 E0.2004
G1 X146.468 Y153.532 E0.2225
G1 X146.690 Y153.876 E0.2445
G1 X146.811 Y153.755 E0.2537
G1 X147.692 Y154.326 E0.3103
G1 X148.458 Y154.654 E0.3552
G1 X149.268 Y154.848 E0.4001
G1 X150.099 Y154.902 E0.4449
G1 X150.927 Y154.815 E0.4898
G1 X151.728 Y154.588 E0.5347
G1 X152.480 Y154.230 E0.5795
G1 X153.160 Y153.749 E0.6244
G1 X153.749 Y153.160 E0.6693
G1 X154.230 Y152.480 E0.7142
G1 X154.588 Y151.728 E0.7590
G1 X154.815 Y150.927 E0.8039
G1 X154.902 Y150.099 E0.8488
G1 X154.848 Y149.268 E0.8937
G1 X154.654 Y148.458 E0.9385
G1 X154.326 Y147.692 E0.9834
G1 X153.755 Y146.811 E1.0400
G1 X153.876 Y146.690 E1.0492
G1 X153.532 Y146.468 E1.0713
G1 X153.310 Y146.124 E1.0933
G1 X153.189 Y146.245 E1.1025
G1 X152.308 Y145.674 E1.1591
G1 X151.542 Y145.346 E1.2040
G1 X150.732 Y145.152 E1.2488
G1 X149.901 Y145.098 E1.2937
G1 X149.073 Y145.185 E1.3386
G1 X148.271 Y145.411 E1.3835
G1 X147.520 Y145.770 E1.4283
G1 X146.840 Y146.251 E1.4732
G1 X146.251 Y146.840 E1.5181
G1 X145.770 Y147.520 E1.5630
G1 X145.411 Y148.271 E1.6078
G1 X145.185 Y149.073 E1.6527
G1 X145.098 Y149.901 E1.6976
G92 E0.0000
G1 E-5.0000 F1800
; feature outer perimeter
G1 X147.199 Y150.000 F4800
G1 E0.0000 F1800
G92 E0.0000
G1 X147.241 Y150.486 E0.0263 F600
G1 X147.368 Y150.958 E0.0526
G1 X147.574 Y151.401 E0.0789
G1 X147.854 Y151.801 E0.1052
G1 X148.199 Y152.146 E0.1315
G1 X148.599 Y152.426 E0.1579
G1 X149.044 Y152.633 E0.1843
G1 X149.568 Y152.763 E0.2134
G1 X150.000 Y152.801 E0.2367
G1 X150.486 Y152.759 E0.2630
G1 X150.958 Y152.632 E0.2894
G1 X151.401 Y152.426 E0.3157
G1 X151.801 Y152.146 E0.3420
G1 X152.146 Y151.801 E0.3683
G1 X152.426 Y151.401 E0.3946
G1 X152.632 Y150.958 E0.4209
G1 X152.759 Y150.486 E0.4472
G1 X152.801 Y150.000 E0.4735
G1 X152.759 Y149.514 E0.4998
G1 X152.632 Y149.042 E0.5261
G1 X152.426 Y148.599 E0.5524
G1 X152.146 Y148.199 E0.5788
G1 X151.801 Y147.854 E0.6051
G1 X151.401 Y147.574 E0.6314
G1 X150.958 Y147.368 E0.6577
G1 X150.486 Y147.241 E0.6840
G1 X150.000 Y147.199 E0.7103
G1 X149.514 Y147.241 E0.7366
G1 X149.042 Y147.368 E0.7629
G1 X148.599 Y147.574 E0.7892
G1 X148.199 Y147.854 E0.8155
G1 X147.854 Y148.199 E0.8418
G1 X147.574 Y148.599 E0.8682
G1 X147.368 Y149.042 E0.8945
G1 X147.241 Y149.514 E0.9208
G1 X147.199 Y150.000 E0.9471
G1 X147.861 Y152.422 F4800
G92 E0.0000
G1 X147.073 Y153.210 E0.0600 F600
G1 X147.976 Y153.795 E0.1180
G1 X148.647 Y154.083 E0.1573
G1 X149.358 Y154.253 E0.1967
G1 X150.087 Y154.300 E0.2361
G1 X150.813 Y154.224 E0.2754
G1 X151.516 Y154.025 E0.3148
G1 X152.176 Y153.710 E0.3542
G1 X152.772 Y153.289 E0.3935
G1 X153.289 Y152.772 E0.4329
G1 X153.710 Y152.176 E0.4722
G1 X154.025 Y151.516 E0.5116
G1 X154.224 Y150.813 E0.5510
G1 X154.300 Y150.087 E0.5903
G1 X154.253 Y149.358 E0.6297
G1 X154.083 Y148.647 E0.6691
G1 X153.795 Y147.976 E0.7084
G1 X153.210 Y147.073 E0.7664
G1 X152.422 Y147.861 E0.8264
G1 X152.846 Y148.539 E0.8695
G1 X153.050 Y149.036 E0.8984
G1 X153.168 Y149.559 E0.9273
G1 X153.198 Y150.095 E0.9563
G1 X153.137 Y150.628 E0.9852
G1 X152.988 Y151.144 E1.0141
G1 X152.754 Y151.627 E1.0430
G1 X152.444 Y152.064 E1.0719
G1 X152.064 Y152.444 E1.1008
G1 X151.627 Y152.754 E1.1297
G1 X151.144 Y152.988 E1.1586
G1 X150.628 Y153.137 E1.1876
G1 X150.095 Y153.198 E1.2165
G1 X149.559 Y153.168 E1.2454
G1 X149.036 Y153.050 E1.2743
G1 X148.539 Y152.846 E1.3032
G1 X147.861 Y152.422 E1.3463
; feature solid layer
G1 X146.825 Y154.462 F4800
G92 E0.0000
G1 X147.372 Y155.009 E0.0417 F960
G1 X148.729 Y155.518 E0.1198
G1 X148.369 Y155.158 E0.1472
G1 X149.191 Y155.354 E0.1927
G1 X149.430 Y155.370 E0.2056
G1 X150.040 Y155.979 E0.2521
G1 X150.657 Y155.748 E0.2876
G1 X150.302 Y155.394 E0.3146
G1 X151.024 Y155.317 E0.3537
G1 X151.064 Y155.306 E0.3559
G1 X151.274 Y155.516 E0.3719
G1 X151.891 Y155.285 E0.4074
G1 X151.725 Y155.119 E0.4201
G1 X151.909 Y155.067 E0.4303
G1 X152.324 Y154.869 E0.4551
G1 X152.508 Y155.054 E0.4691
G1 X153.125 Y154.822 E0.5047
G1 X152.877 Y154.574 E0.5236
G1 X153.374 Y154.222 E0.5564
G1 X153.742 Y154.591 E0.5844
G1 X154.359 Y154.359 E0.6200
G1 X153.815 Y153.815 E0.6614
G1 X154.140 Y153.490 E0.6862
G1 X154.222 Y153.374 E0.6939
G1 X154.976 Y154.128 E0.7513
G1 X155.594 Y153.897 E0.7868
G1 X154.574 Y152.877 E0.8645
G1 X154.671 Y152.739 E0.8736
G1 X154.869 Y152.324 E0.8984
G1 X156.211 Y153.665 E1.0006
G1 X156.828 Y153.434 E1.0361
G1 X155.119 Y151.725 E1.1663
G1 X155.306 Y151.064 E1.2033
G1 X157.445 Y153.202 E1.3663
G1 X158.062 Y152.971 E1.4018
G1 X155.394 Y150.302 E1.6052
G1 X155.414 Y150.109 E1.6156
G1 X155.370 Y149.430 E1.6523
G1 X158.679 Y152.739 E1.9045
G1 X159.296 Y152.508 E1.9400
G1 X155.158 Y148.369 E2.2553
G1 X164.847 Y149.574 F4800
G92 E0.0000
G1 X165.467 Y150.194 E0.0473 F960
G1 X164.850 Y150.425 E0.0828
G1 X163.489 Y149.064 E0.1865
G1 X162.132 Y148.555 E0.2646
G1 X164.233 Y150.657 E0.4247
G1 X163.616 Y150.888 E0.4602
G1 X160.774 Y148.046 E0.6768
G1 X159.416 Y147.537 E0.7549
G1 X162.999 Y151.120 E1.0279
G1 X162.382 Y151.351 E1.0634
G1 X158.059 Y147.028 E1.3928
G1 X156.701 Y146.519 E1.4709
G1 X161.765 Y151.582 E1.8568
G1 X161.148 Y151.814 E1.8923
G1 X155.344 Y146.010 E2.3346
G1 X153.986 Y145.501 E2.4127
G1 X160.530 Y152.045 E2.9114
G1 X159.913 Y152.277 E2.9469
G1 X154.462 Y146.825 E3.3623
G1 X154.682 Y146.605 E3.3791
G1 X153.901 Y146.099 E3.4292
G1 X153.395 Y145.318 E3.4794
G1 X153.175 Y145.538 E3.4961
G1 X152.628 Y144.991 E3.5378
G1 X151.271 Y144.482 E3.6159
G1 X151.631 Y144.842 E3.6433
G1 X150.809 Y144.646 E3.6889
G1 X150.570 Y144.630 E3.7018
G1 X149.960 Y144.021 E3.7482
G1 X149.343 Y144.252 E3.7837
G1 X149.698 Y144.606 E3.8107
G1 X148.976 Y144.683 E3.8498
G1 X148.936 Y144.694 E3.8520
G1 X148.726 Y144.484 E3.8680
G1 X148.109 Y144.715 E3.9036
G1 X148.275 Y144.881 E3.9162
G1 X148.091 Y144.932 E3.9265
G1 X147.676 Y145.131 E3.9512
G1 X147.492 Y144.946 E3.9653
G1 X146.875 Y145.178 E4.0008
G1 X147.123 Y145.426 E4.0197
G1 X146.626 Y145.778 E4.0525
G1 X146.258 Y145.409 E4.0806
G1 X145.641 Y145.641 E4.1161
G1 X146.185 Y146.185 E4.1575
G1 X145.860 Y146.510 E4.1823
G1 X145.778 Y146.626 E4.1900
G1 X145.024 Y145.872 E4.2474
G1 X144.406 Y146.103 E4.2829
G1 X145.426 Y147.123 E4.3606
G1 X145.329 Y147.261 E4.3697
G1 X145.131 Y147.676 E4.3945
G1 X143.789 Y146.335 E4.4967
G1 X143.172 Y146.566 E4.5322
G1 X144.881 Y148.275 E4.6624
G1 X144.694 Y148.936 E4.6995
G1 X142.555 Y146.798 E4.8624
G1 X141.938 Y147.029 E4.8979
G1 X144.606 Y149.698 E5.1013
G1 X144.586 Y149.891 E5.1117
G1 X144.630 Y150.570 E5.1484
G1 X141.321 Y147.261 E5.4006
G1 X140.704 Y147.492 E5.4361
G1 X144.842 Y151.631 E5.7514
G1 X144.860 Y151.703 E5.7555
G1 X145.222 Y152.549 E5.8050
G1 X145.593 Y153.120 E5.8417
G1 X145.538 Y153.175 E5.8459
G1 X140.087 Y147.723 E6.2613
G1 X139.470 Y147.955 E6.2968
G1 X146.014 Y154.499 E6.7955
G1 X144.657 Y153.990 E6.8736
G1 X138.852 Y148.186 E7.3159
G1 X138.235 Y148.418 E7.3514
G1 X143.299 Y153.481 E7.7372
G1 X141.941 Y152.972 E7.8154
G1 X137.618 Y148.649 E8.1448
G1 X137.001 Y148.880 E8.1803
G1 X140.584 Y152.463 E8.4533
G1 X139.226 Y151.954 E8.5314
G1 X136.384 Y149.112 E8.7480
G1 X135.767 Y149.343 E8.7835
